Sources/FrostedUI/Resources/Icons.xcassets/cameraAddFilled12.imageset/camera-add-filled-12.svg

<svg width="12" height="12" viewBox="0 0 12 12" fill="none" xmlns="http://www.w3.org/2000/svg" data-fui-icon="true">
  <path
    d="M7.19531 0.375C7.28833 0.375012 7.38045 0.381657 7.47168 0.391602C6.6131 0.708479 6 1.53133 6 2.5C6 2.8901 6.09967 3.25661 6.27441 3.57617C6.18415 3.56723 6.09262 3.5625 6 3.5625C4.48122 3.5625 3.25 4.79372 3.25 6.3125C3.25 7.83128 4.48122 9.0625 6 9.0625C7.51878 9.0625 8.75 7.83128 8.75 6.3125C8.75 6.20842 8.74173 6.10596 8.73047 6.00488C9.0365 6.16108 9.38266 6.25 9.75 6.25C10.7656 6.25 11.6226 5.57664 11.9023 4.65234C11.9356 4.64229 11.9675 4.62871 12 4.61719V9.0752C11.9999 10.4834 10.8584 11.6249 9.4502 11.625H2.5498C1.22964 11.6249 0.143351 10.6216 0.0126953 9.33594L0 9.0752V4.22949C0 3.13628 0.886285 2.25 1.97949 2.25C2.15294 2.24998 2.31266 2.15618 2.39746 2.00488L2.58008 1.67871C3.03103 0.873646 3.88193 0.375127 4.80469 0.375H7.19531ZM6 5.0625C6.69036 5.0625 7.25 5.62214 7.25 6.3125C7.25 7.00286 6.69036 7.5625 6 7.5625C5.30964 7.5625 4.75 7.00286 4.75 6.3125C4.75 5.62214 5.30964 5.0625 6 5.0625ZM9.75 0.25C10.1642 0.25 10.5 0.585786 10.5 1V1.75H11.25C11.6642 1.75 12 2.08579 12 2.5C12 2.91421 11.6642 3.25 11.25 3.25H10.5V4C10.5 4.41421 10.1642 4.75 9.75 4.75C9.33579 4.75 9 4.41421 9 4V3.25H8.25C7.83579 3.25 7.5 2.91421 7.5 2.5C7.5 2.08579 7.83579 1.75 8.25 1.75H9V1C9 0.585786 9.33579 0.25 9.75 0.25Z"
    fill="currentColor"
  />
</svg>

<svg xmlns="http://www.w3.org/2000/svg" width="12" height="12" fill="none" data-fui-icon="true" viewBox="0 0 12 12"><path fill="currentColor" d="M7.195.375q.14.001.277.017a2.248 2.248 0 0 0-1.198 3.184A2.75 2.75 0 1 0 8.73 6.005a2.25 2.25 0 0 0 3.172-1.353q.05-.016.098-.035v4.458a2.55 2.55 0 0 1-2.55 2.55h-6.9a2.55 2.55 0 0 1-2.537-2.29L0 9.076V4.23A1.98 1.98 0 0 1 1.98 2.25a.48.48 0 0 0 .417-.245l.183-.326A2.55 2.55 0 0 1 4.805.375zM6 5.063a1.25 1.25 0 1 1 0 2.5 1.25 1.25 0 0 1 0-2.5M9.75.25a.75.75 0 0 1 .75.75v.75h.75a.75.75 0 0 1 0 1.5h-.75V4A.75.75 0 0 1 9 4v-.75h-.75a.75.75 0 0 1 0-1.5H9V1a.75.75 0 0 1 .75-.75"/></svg>
